frontend/images/ic_device.svg

<svg xmlns="http://www.w3.org/2000/svg" viewBox="0 0 48 48" version="1.1">
<path fill="#455A64" d="M 42 35 C 42 37.210938 40.210938 38 38 38 L 10 38 C 7.789063 38 6 37.210938 6 35 L 9 23 C 9.21875 20.90625 10.789063 19 13 19 L 35 19 C 37.210938 19 38.6875 20.75 39 23 Z "></path>
<path fill="#455A64" d="M 42 27 C 42 29.210938 40.210938 30 38 30 L 10 30 C 7.789063 30 6 29.210938 6 27 L 9 15 C 9.21875 12.90625 10.789063 11 13 11 L 35 11 C 37.210938 11 38.6875 12.75 39 15 Z "></path>
<path fill="#455A64" d="M 42 19 C 42 21.210938 40.210938 22 38 22 L 10 22 C 7.789063 22 6 21.210938 6 19 L 9 7 C 9.609375 5.339844 10.789063 4 13 4 L 35 4 C 37.210938 4 38.199219 5.085938 39 7 Z "></path>
<path fill="#78909C" d="M 38 22 L 10 22 C 7.789063 22 6 21.210938 6 19 L 6 25 C 6 27.210938 7.789063 28 10 28 L 38 28 C 40.210938 28 42 27.210938 42 25 L 42 19 C 42 21.210938 40.210938 22 38 22 Z "></path>
<path fill="#78909C" d="M 38 30 L 10 30 C 7.789063 30 6 29.210938 6 27 L 6 33 C 6 35.210938 7.789063 36 10 36 L 38 36 C 40.210938 36 42 35.210938 42 33 L 42 27 C 42 29.210938 40.210938 30 38 30 Z "></path>
<path fill="#78909C" d="M 38 38 L 10 38 C 7.789063 38 6 37.210938 6 35 L 6 41 C 6 43.210938 7.789063 44 10 44 L 38 44 C 40.210938 44 42 43.210938 42 41 L 42 35 C 42 37.210938 40.210938 38 38 38 Z "></path>
<path fill="#64DD17" d="M 37 41 C 37 42.105469 36.105469 43 35 43 C 33.894531 43 33 42.105469 33 41 C 33 39.894531 33.894531 39 35 39 C 36.105469 39 37 39.894531 37 41 Z "></path>
<path fill="#64DD17" d="M 37 33 C 37 34.105469 36.105469 35 35 35 C 33.894531 35 33 34.105469 33 33 C 33 31.894531 33.894531 31 35 31 C 36.105469 31 37 31.894531 37 33 Z "></path>
<path fill="#64DD17" d="M 37 25 C 37 26.105469 36.105469 27 35 27 C 33.894531 27 33 26.105469 33 25 C 33 23.894531 33.894531 23 35 23 C 36.105469 23 37 23.894531 37 25 Z "></path>
</svg>

<svg version="1.1" viewBox="0 0 48 48" xmlns="http://www.w3.org/2000/svg"><path d="m42 35c0 2.2109-1.7891 3-4 3h-28c-2.2109 0-4-0.78906-4-3l3-12c0.21875-2.0938 1.7891-4 4-4h22c2.2109 0 3.6875 1.75 4 4z" fill="#455A64"/><path d="m42 27c0 2.2109-1.7891 3-4 3h-28c-2.2109 0-4-0.78906-4-3l3-12c0.21875-2.0938 1.7891-4 4-4h22c2.2109 0 3.6875 1.75 4 4z" fill="#455A64"/><path d="m42 19c0 2.2109-1.7891 3-4 3h-28c-2.2109 0-4-0.78906-4-3l3-12c0.60938-1.6602 1.7891-3 4-3h22c2.2109 0 3.1992 1.0859 4 3z" fill="#455A64"/><path d="m38 22h-28c-2.2109 0-4-0.78906-4-3v6c0 2.2109 1.7891 3 4 3h28c2.2109 0 4-0.78906 4-3v-6c0 2.2109-1.7891 3-4 3z" fill="#78909C"/><path d="m38 30h-28c-2.2109 0-4-0.78906-4-3v6c0 2.2109 1.7891 3 4 3h28c2.2109 0 4-0.78906 4-3v-6c0 2.2109-1.7891 3-4 3z" fill="#78909C"/><path d="m38 38h-28c-2.2109 0-4-0.78906-4-3v6c0 2.2109 1.7891 3 4 3h28c2.2109 0 4-0.78906 4-3v-6c0 2.2109-1.7891 3-4 3z" fill="#78909C"/><path d="m37 41c0 1.1055-0.89453 2-2 2s-2-0.89453-2-2 0.89453-2 2-2 2 0.89453 2 2z" fill="#64DD17"/><path d="m37 33c0 1.1055-0.89453 2-2 2s-2-0.89453-2-2 0.89453-2 2-2 2 0.89453 2 2z" fill="#64DD17"/><path d="m37 25c0 1.1055-0.89453 2-2 2s-2-0.89453-2-2 0.89453-2 2-2 2 0.89453 2 2z" fill="#64DD17"/></svg>
